build/svg/cmd/sc_cylinder.svg

<?xml version="1.0" encoding="UTF-8" standalone="no"?>
<svg
   xmlns:dc="http://purl.org/dc/elements/1.1/"
   xmlns:cc="http://creativecommons.org/ns#"
   xmlns:rdf="http://www.w3.org/1999/02/22-rdf-syntax-ns#"
   xmlns:svg="http://www.w3.org/2000/svg"
   xmlns="http://www.w3.org/2000/svg"
   xmlns:sodipodi="http://sodipodi.sourceforge.net/DTD/sodipodi-0.dtd"
   xmlns:inkscape="http://www.inkscape.org/namespaces/inkscape"
   height="16"
   width="16"
   version="1.1"
   id="svg13"
   sodipodi:docname="sc_cylinder.svg"
   inkscape:export-filename="/home/jupiter007/Libreoffice yaru theme fullcolor/build/cmd/sc_cylinder.png"
   inkscape:export-xdpi="96"
   inkscape:export-ydpi="96"
   inkscape:version="0.92.5 (2060ec1f9f, 2020-04-08)">
  <metadata
     id="metadata19">
    <rdf:RDF>
      <cc:Work
         rdf:about="">
        <dc:format>image/svg+xml</dc:format>
        <dc:type
           rdf:resource="http://purl.org/dc/dcmitype/StillImage" />
      </cc:Work>
    </rdf:RDF>
  </metadata>
  <defs
     id="defs17" />
  <sodipodi:namedview
     pagecolor="#ffffff"
     bordercolor="#666666"
     borderopacity="1"
     objecttolerance="10"
     gridtolerance="10"
     guidetolerance="10"
     inkscape:pageopacity="0"
     inkscape:pageshadow="2"
     inkscape:window-width="1920"
     inkscape:window-height="1011"
     id="namedview15"
     showgrid="false"
     inkscape:zoom="29.5"
     inkscape:cx="11.916607"
     inkscape:cy="6.2606232"
     inkscape:window-x="0"
     inkscape:window-y="32"
     inkscape:window-maximized="1"
     inkscape:current-layer="svg13" />
  <linearGradient
     id="a"
     gradientTransform="matrix(0.75000025,0,0,0.75000054,-0.25,-773.02224)"
     gradientUnits="userSpaceOnUse"
     x1="3"
     x2="11"
     y1="1043.3622"
     y2="1043.3622">
    <stop
       offset="0"
       stop-color="#b3b3b3"
       id="stop2" />
    <stop
       offset="1"
       stop-color="#232629"
       id="stop4" />
  </linearGradient>
  <path
     style="opacity:0.6;fill:#000000;stroke:#000000;stroke-width:2;stroke-miterlimit:4;stroke-dasharray:none;stroke-linejoin:round"
     d="M 8 2 A 6.000002 3.0000022 0 0 0 2 5 L 2 11 C 2 12.656826 4.6862904 14 8 14 C 11.31371 14 14 12.656826 14 11 L 14 5 A 6.000002 3.0000022 0 0 0 8 2 z M 13.974609 5.2558594 C 13.964595 5.3150068 13.948419 5.373521 13.931641 5.4316406 A 6.000002 3.0000022 0 0 0 13.974609 5.2558594 z M 13.898438 5.5410156 C 13.873844 5.608516 13.84206 5.674391 13.808594 5.7402344 A 6.000002 3.0000022 0 0 0 13.898438 5.5410156 z M 2.1191406 5.5957031 A 6.000002 3.0000022 0 0 0 2.2675781 5.8867188 A 6.000002 3.0000022 0 0 0 2.5058594 6.1992188 C 2.4166313 6.0972346 2.3340253 5.9942448 2.2675781 5.8867188 C 2.2087324 5.7914936 2.1590074 5.6947185 2.1191406 5.5957031 z M 13.761719 5.8320312 C 13.723546 5.8982511 13.679693 5.963091 13.632812 6.0273438 A 6.000002 3.0000022 0 0 0 13.761719 5.8320312 z M 13.570312 6.1132812 C 13.542486 6.148067 13.508843 6.1807149 13.478516 6.2148438 A 6.000002 3.0000022 0 0 0 13.570312 6.1132812 z M 2.9921875 6.6484375 A 6.000002 3.0000022 0 0 0 3.0410156 6.6875 C 3.0235991 6.6747243 3.0092175 6.6613537 2.9921875 6.6484375 z M 12.996094 6.6582031 C 12.973014 6.6755601 12.947606 6.691884 12.923828 6.7089844 A 6.000002 3.0000022 0 0 0 12.996094 6.6582031 z M 3.7285156 7.1035156 A 6.000002 3.0000022 0 0 0 3.7753906 7.1289062 C 3.7590575 7.1208018 3.7446624 7.1117129 3.7285156 7.1035156 z M 12.257812 7.1113281 C 12.240146 7.1202344 12.221013 7.1279232 12.203125 7.1367188 A 6.000002 3.0000022 0 0 0 12.257812 7.1113281 z M 4.5546875 7.4511719 A 6.000002 3.0000022 0 0 0 4.7050781 7.5039062 C 4.6534359 7.4868866 4.6051989 7.4689597 4.5546875 7.4511719 z M 11.369141 7.4824219 C 11.350202 7.4888603 11.329639 7.4936675 11.310547 7.5 A 6.000002 3.0000022 0 0 0 11.369141 7.4824219 z M 5.5917969 7.7441406 A 6.000002 3.0000022 0 0 0 5.7109375 7.7714844 C 5.6703764 7.763101 5.6319044 7.752953 5.5917969 7.7441406 z M 6.6992188 7.9257812 A 6.000002 3.0000022 0 0 0 6.8535156 7.9433594 C 6.801341 7.9383024 6.7509015 7.9315095 6.6992188 7.9257812 z M 9.2871094 7.9277344 C 9.2545543 7.9313013 9.2241569 7.9361518 9.1914062 7.9394531 A 6.000002 3.0000022 0 0 0 9.2871094 7.9277344 z "
     id="path828" />
  <path
     style="opacity:1;fill:#ffffff"
     inkscape:connector-curvature="0"
     id="path7"
     d="m 8,1.999972 a 6.000002,3.0000022 0 0 0 -6,3 6.000002,3.0000022 0 0 0 6,3 6.000002,3.0000022 0 0 0 6,-3 6.000002,3.0000022 0 0 0 -6,-3 z" />
  <path
     inkscape:connector-curvature="0"
     style="opacity:0.986928;fill:#b6b6b6;fill-opacity:1"
     id="path9"
     d="m 2,4.999972 v 6 c 0,1.656826 2.6862904,3 6,3 3.31371,0 6,-1.343174 6,-3 v -6 c 0,1.6568262 -2.68629,3 -6,3 -3.3137096,0 -6,-1.3431738 -6,-3 z" />
</svg>

<svg xmlns="http://www.w3.org/2000/svg" height="16" width="16"><path d="M8 2a6 3 0 00-6 3v6c0 1.657 2.686 3 6 3s6-1.343 6-3V5a6 3 0 00-6-3zm5.975 3.256c-.01.059-.027.118-.043.176a6 3 0 00.043-.176zm-.077.285a1.817 1.817 0 01-.09.2 6 3 0 00.09-.2zM2.12 5.596a6 3 0 00.149.29 6 3 0 00.238.313 2.4 2.4 0 01-.238-.312 1.913 1.913 0 01-.149-.291zm11.643.236a2.187 2.187 0 01-.13.195 6 3 0 00.13-.195zm-.192.281c-.028.035-.061.068-.091.102a6 3 0 00.091-.102zm-10.578.535a6 3 0 00.049.04l-.049-.04zm10.004.01c-.023.018-.048.034-.072.051a6 3 0 00.072-.05zm-9.267.446a6 3 0 00.046.025l-.046-.025zm8.529.007c-.018.01-.037.017-.055.026a6 3 0 00.055-.026zm-7.703.34a6 3 0 00.15.053c-.052-.017-.1-.035-.15-.053zm6.814.031c-.019.007-.04.012-.058.018a6 3 0 00.058-.018zm-5.777.262a6 3 0 00.119.027l-.12-.027zm1.107.182a6 3 0 00.155.017l-.155-.017zm2.588.002l-.096.011a6 3 0 00.096-.011z" opacity=".6" stroke="#000" stroke-width="2" stroke-linejoin="round"/><path d="M8 2a6 3 0 00-6 3 6 3 0 006 3 6 3 0 006-3 6 3 0 00-6-3z" fill="#fff"/><path d="M2 5v6c0 1.657 2.686 3 6 3s6-1.343 6-3V5c0 1.657-2.686 3-6 3S2 6.657 2 5z" opacity=".987" fill="#b6b6b6"/></svg>
